X: 1740
T: THE SOUTHERN SHORE
M:2/4
L:1/16
B:O'NEILL'S 1740
N:"collected by J. O'Neill"
Z:Transcribed by A.LEE WORMAN
K:G
D2|GdBG AcAF|GABG D2(GF)|EGAB cBAG|FAdc (3fed (3cBA|
GdBG AcAF|GABG D2(GF)|Eedc BAGF|A2G2 G2:|
|:(AG)|FAd^c dBAG|FAd^c dfed|^cdef gece|d^cde d2(d=c)|
BcBA GBec|ABAG FAdf|egfe dcBA|G2B2 G2:|


